packages/dynamic-pages/assets/calendar.svg

<svg width="36" height="36" fill="none" xmlns="http://www.w3.org/2000/svg"><path d="M15 17h-2v2h2v-2zm4 0h-2v2h2v-2zm4 0h-2v2h2v-2zm2-7h-1V8h-2v2h-8V8h-2v2h-1c-1.11 0-1.99.9-1.99 2L9 26a2 2 0 002 2h14c1.1 0 2-.9 2-2V12c0-1.1-.9-2-2-2zm0 16H11V15h14v11z" fill="#B8B9BA"/></svg>

<svg width="36" height="36" viewBox="0 0 36 36" fill="none" xmlns="http://www.w3.org/2000/svg">
<path d="M15 17H13V19H15V17ZM19 17H17V19H19V17ZM23 17H21V19H23V17ZM25 10H24V8H22V10H14V8H12V10H11C9.89 10 9.01 10.9 9.01 12L9 26C9 27.1 9.89 28 11 28H25C26.1 28 27 27.1 27 26V12C27 10.9 26.1 10 25 10ZM25 26H11V15H25V26Z" fill="#B8B9BA"/>
</svg>
